img/logo.svg

<?xml version="1.0" encoding="utf-8"?>
<!-- Generator: Adobe Illustrator 19.0.0, SVG Export Plug-In . SVG Version: 6.00 Build 0)  -->
<svg version="1.1" xmlns="http://www.w3.org/2000/svg" xmlns:xlink="http://www.w3.org/1999/xlink" x="0px" y="0px"
	 viewBox="0 0 2090 400" style="enable-background:new 0 0 2090 400;" xml:space="preserve">
<style type="text/css">
	.st0{display:none;}
	.st1{display:inline;}
	.st2{fill:none;stroke:#29ABE2;stroke-width:2;stroke-miterlimit:10;}
	.st3{display:inline;fill:#B98F31;}
	.st4{display:none;fill:#B98F31;}
	.st5{display:inline;fill:#DAA62F;}
	.st6{display:none;fill:#DAA62F;}
	.st7{fill:#B98F31;}
	.st8{fill:#DAA62F;}
</style>
<g id="Layer_2" class="st0">
	<g id="XMLID_1_" class="st1">
		<circle id="XMLID_23_" class="st2" cx="164.5" cy="-343" r="100"/>
		<circle id="XMLID_22_" class="st2" cx="164.5" cy="-343" r="70"/>
		<rect id="XMLID_21_" x="64.5" y="-343" class="st2" width="30" height="100"/>
		<rect id="XMLID_6_" x="234.5" y="-343" class="st2" width="30" height="100"/>
		<rect id="XMLID_5_" x="64.5" y="-543" class="st2" width="30" height="200"/>
		<line id="XMLID_4_" class="st2" x1="164.5" y1="-493" x2="164.5" y2="-193"/>
	</g>
	<g id="XMLID_8_" class="st1">
		<circle id="XMLID_38_" class="st2" cx="-100" cy="-335" r="100"/>
		<circle id="XMLID_37_" class="st2" cx="-100" cy="-335" r="60"/>
		<rect id="XMLID_36_" x="-200" y="-335" class="st2" width="40" height="100"/>
		<rect id="XMLID_35_" x="-40" y="-335" class="st2" width="40" height="100"/>
		<rect id="XMLID_34_" x="-200" y="-535" class="st2" width="40" height="200"/>
		<line id="XMLID_33_" class="st2" x1="-100" y1="-485" x2="-100" y2="-185"/>
	</g>
	<g id="XMLID_39_" class="st1">
		<circle id="XMLID_49_" class="st2" cx="402.5" cy="-329" r="100"/>
		<circle id="XMLID_48_" class="st2" cx="402.5" cy="-329" r="80"/>
		<rect id="XMLID_47_" x="302.5" y="-329" class="st2" width="20" height="100"/>
		<rect id="XMLID_46_" x="482.5" y="-329" class="st2" width="20" height="100"/>
		<rect id="XMLID_44_" x="302.5" y="-529" class="st2" width="20" height="200"/>
		<line id="XMLID_42_" class="st2" x1="402.5" y1="-479" x2="402.5" y2="-179"/>
	</g>
</g>
<g id="Layer_1">
	<g id="XMLID_7_" class="st0">
		<path id="XMLID_30_" class="st3" d="M240,200c0-38.7,31.3-70,70-70s70,31.3,70,70h30c0-55.2-44.8-100-100-100s-100,44.8-100,100
			H240z"/>
		<rect id="XMLID_41_" x="210" y="200" class="st3" width="30" height="100"/>
		<rect id="XMLID_40_" x="380" y="200" class="st3" width="30" height="100"/>
	</g>
	<path id="XMLID_45_" class="st4" d="M520,100c-55.2,0-100,44.8-100,100c0,55.2,44.8,100,100,100s100-44.8,100-100
		C620,144.8,575.2,100,520,100z M520,270c-38.7,0-70-31.3-70-70c0-38.7,31.3-70,70-70s70,31.3,70,70C590,238.7,558.7,270,520,270z"
		/>
	<g id="XMLID_19_" class="st0">
		<rect id="XMLID_65_" x="990" y="200" class="st5" width="40" height="200"/>
		<path id="XMLID_64_" class="st5" d="M1090,100c-55.2,0-100,44.8-100,100c0,55.2,44.8,100,100,100c55.2,0,100-44.8,100-100
			C1190,144.8,1145.2,100,1090,100z M1090,260c-33.1,0-60-26.9-60-60s26.9-60,60-60s60,26.9,60,60S1123.1,260,1090,260z"/>
	</g>
	<rect id="XMLID_60_" x="1420" y="100" class="st6" width="30" height="200"/>
	<g id="XMLID_2_" class="st0">
		<path id="XMLID_25_" class="st3" d="M160,200c0-33.1-26.9-60-60-60s-60,26.9-60,60H0c0-55.2,44.8-100,100-100s100,44.8,100,100
			H160z"/>
		<path id="XMLID_29_" class="st3" d="M142.4,242.4C131.6,253.3,116.6,260,100,260c-33.1,0-60-26.9-60-60H0c0,55.2,44.8,100,100,100
			c27.6,0,52.6-11.2,70.7-29.3L142.4,242.4z"/>
		<rect id="XMLID_57_" x="60" y="200" class="st3" width="140" height="20"/>
	</g>
	<g id="XMLID_12_" class="st0">
		<rect id="XMLID_28_" x="770" y="200" class="st3" width="140" height="20"/>
		<path id="XMLID_52_" class="st3" d="M820.5,249.5c12.7,12.7,30.2,20.5,49.5,20.5c38.7,0,70-31.3,70-70h30c0,55.2-44.8,100-100,100
			c-27.6,0-52.6-11.2-70.7-29.3L820.5,249.5z"/>
		<path id="XMLID_9_" class="st3" d="M800,200c0-38.7,31.3-70,70-70c19.3,0,36.8,7.8,49.5,20.5l21.2-21.2
			C922.6,111.2,897.6,100,870,100c-55.2,0-100,44.8-100,100H800z"/>
	</g>
	<g id="XMLID_11_" class="st0">
		<path id="XMLID_18_" class="st3" d="M730,100c0,38.7-31.3,70-70,70v30c55.2,0,100-44.8,100-100L730,100z"/>
		<path id="XMLID_17_" class="st3" d="M660,230c38.7,0,70,31.3,70,70h30c0-55.2-44.8-100-100-100V230z"/>
		<rect id="XMLID_26_" x="630" y="100" class="st3" width="30" height="200"/>
	</g>
	<g id="XMLID_32_" class="st0">
		<path id="XMLID_56_" class="st5" d="M1780,100c-55.2,0-100,44.8-100,100c0,55.2,44.8,100,100,100s100-44.8,100-100
			C1880,144.8,1835.2,100,1780,100z M1780,270c-38.7,0-70-31.3-70-70c0-38.7,31.3-70,70-70s70,31.3,70,70
			C1850,238.7,1818.7,270,1780,270z"/>
		<rect id="XMLID_53_" x="1850" y="0" class="st5" width="30" height="200"/>
	</g>
	<g id="XMLID_24_" class="st0">
		<rect id="XMLID_15_" x="1530" y="200" class="st5" width="140" height="20"/>
		<path id="XMLID_13_" class="st5" d="M1500,200c0,38.7,31.3,70,70,70c19.3,0,36.8-7.8,49.5-20.5l21.2,21.2
			c-18.1,18.1-43.1,29.3-70.7,29.3c-55.2,0-100-44.8-100-100H1500z"/>
		<path id="XMLID_10_" class="st5" d="M1570,100c-55.2,0-100,44.8-100,100h30c0-38.7,31.3-70,70-70s70,31.3,70,70h30
			C1670,144.8,1625.2,100,1570,100z"/>
	</g>
	<g id="XMLID_50_" class="st0">
		<rect id="XMLID_27_" x="1950" y="200" class="st5" width="140" height="20"/>
		<path id="XMLID_14_" class="st5" d="M1920,200c0,38.7,31.3,70,70,70c19.3,0,36.8-7.8,49.5-20.5l21.2,21.2
			c-18.1,18.1-43.1,29.3-70.7,29.3c-55.2,0-100-44.8-100-100H1920z"/>
		<path id="XMLID_62_" class="st5" d="M1990,100c-55.2,0-100,44.8-100,100h30c0-38.7,31.3-70,70-70s70,31.3,70,70h30
			C2090,144.8,2045.2,100,1990,100z"/>
	</g>
	<g id="XMLID_3_" class="st0">
		<path id="XMLID_16_" class="st5" d="M1230,200c0-38.7,31.3-70,70-70s70,31.3,70,70h30c0-55.2-44.8-100-100-100s-100,44.8-100,100
			H1230z"/>
		<polyline id="XMLID_58_" class="st5" points="1200,200 1230,200 1230,300 1200,300 1200,200 		"/>
	</g>
	<path id="XMLID_90_" class="st7" d="M310,100c-55.2,0-100,44.8-100,100h0v100h30V200c0-38.7,31.3-70,70-70c38.7,0,70,31.3,70,70h0
		v100h30V200C410,144.8,365.2,100,310,100z"/>
	<path id="XMLID_99_" class="st7" d="M520,100c-55.2,0-100,44.8-100,100c0,55.2,44.8,100,100,100s100-44.8,100-100
		C620,144.8,575.2,100,520,100z M520,270c-38.7,0-70-31.3-70-70c0-38.7,31.3-70,70-70s70,31.3,70,70C590,238.7,558.7,270,520,270z"
		/>
	<path id="XMLID_95_" class="st8" d="M1090,100c-55.2,0-100,44.8-100,100v200h40V280c16.7,12.6,37.5,20,60,20
		c55.2,0,100-44.8,100-100C1190,144.8,1145.2,100,1090,100z M1090,260c-33.1,0-60-26.9-60-60v0l0,0c0-33.1,26.9-60,60-60
		c33.1,0,60,26.9,60,60S1123.1,260,1090,260z"/>
	<rect id="XMLID_93_" x="1420" y="100" class="st8" width="30" height="200"/>
	<path id="XMLID_107_" class="st7" d="M100,100C44.8,100,0,144.8,0,200c0,55.2,44.8,100,100,100c27.6,0,52.6-11.2,70.7-29.3
		l-28.3-28.3C131.6,253.3,116.6,260,100,260c-33.1,0-60-26.9-60-60s26.9-60,60-60s60,26.9,60,60H60v20h140v-20h0
		C200,144.8,155.2,100,100,100z"/>
	<g id="XMLID_81_">
		<path id="XMLID_82_" class="st7" d="M910,200H800c0-38.7,31.3-70,70-70c19.3,0,36.8,7.8,49.5,20.5l21.2-21.2
			C922.6,111.2,897.6,100,870,100c-55.2,0-100,44.8-100,100v20h140V200z"/>
		<path id="XMLID_87_" class="st7" d="M940,200c0,38.7-31.3,70-70,70c-19.3,0-36.8-7.8-49.5-20.5l-21.2,21.2
			c18.1,18.1,43.1,29.3,70.7,29.3c55.2,0,100-44.8,100-100H940z"/>
	</g>
	<path id="XMLID_91_" class="st7" d="M660,200c55.2,0,100-44.8,100-100h-30c0,38.7-31.3,70-70,70v-70h-30v200h30v-70
		c38.7,0,70,31.3,70,70h30C760,244.8,715.2,200,660,200z"/>
	<path id="XMLID_73_" class="st8" d="M1880,200V0h-30v128.6c-18-17.7-42.7-28.6-70-28.6c-55.2,0-100,44.8-100,100
		c0,55.2,44.8,100,100,100S1880,255.2,1880,200C1880,200,1880,200,1880,200z M1780,270c-38.7,0-70-31.3-70-70c0-38.7,31.3-70,70-70
		c38.7,0,70,31.3,70,70v0l0,0C1850,238.7,1818.7,270,1780,270z"/>
	<path id="XMLID_63_" class="st8" d="M1530,220h140v-20c0-55.2-44.8-100-100-100c-55.2,0-100,44.8-100,100l0,0
		c0,55.2,44.8,100,100,100c27.6,0,52.6-11.2,70.7-29.3l-21.2-21.2c-12.7,12.7-30.2,20.5-49.5,20.5c-38.7,0-70-31.3-70-70l0,0
		c0-38.7,31.3-70,70-70s70,31.3,70,70h-110V220z"/>
	<path id="XMLID_67_" class="st8" d="M1950,220h140v-20c0-55.2-44.8-100-100-100s-100,44.8-100,100l0,0c0,55.2,44.8,100,100,100
		c27.6,0,52.6-11.2,70.7-29.3l-21.2-21.2c-12.7,12.7-30.2,20.5-49.5,20.5c-38.7,0-70-31.3-70-70l0,0c0-38.7,31.3-70,70-70
		s70,31.3,70,70h-110V220z"/>
	<path id="XMLID_85_" class="st8" d="M1300,100c-55.2,0-100,44.8-100,100v100h30V200l0,0c0-38.7,31.3-70,70-70s70,31.3,70,70h30
		C1400,144.8,1355.2,100,1300,100z"/>
</g>
</svg>

<svg id="Layer_1" data-name="Layer 1" xmlns="http://www.w3.org/2000/svg" viewBox="0 0 2090 400"><defs><style>.cls-1{fill:#cd9d30;}.cls-2{fill:#987832;}.cls-3{fill:#a58132;}.cls-4{fill:#c09430;}</style></defs><path class="cls-1" d="M310,100A100,100,0,0,0,210,200h0V300h30V200a70,70,0,0,1,140,0h0V300h30V200A100,100,0,0,0,310,100Z"/><path class="cls-1" d="M520,100A100,100,0,1,0,620,200,100,100,0,0,0,520,100Zm0,170a70,70,0,1,1,70-70A70,70,0,0,1,520,270Z"/><path class="cls-2" d="M1090,100A100,100,0,0,0,990,200V400h40V280a100,100,0,1,0,60-180Zm0,160a60,60,0,0,1-60-60h0a60,60,0,1,1,60,60Z"/><rect class="cls-3" x="1420" y="100" width="30" height="200"/><path class="cls-4" d="M100,100a100,100,0,1,0,70.71,170.71l-28.28-28.28A60,60,0,1,1,160,200H60v20H200V200h0A100,100,0,0,0,100,100Z"/><path class="cls-1" d="M910,200H800a70,70,0,0,1,119.5-49.49l21.21-21.22A100,100,0,0,0,770,200v20H910Z"/><path class="cls-1" d="M940,200a70,70,0,0,1-119.5,49.5l-21.21,21.21A100,100,0,0,0,970,200Z"/><path class="cls-1" d="M660,200A100,100,0,0,0,760,100H730a70,70,0,0,1-70,70V100H630V300h30V230a70,70,0,0,1,70,70h30A100,100,0,0,0,660,200Z"/><path class="cls-3" d="M1880,200V0h-30V128.6a100,100,0,1,0,30,71.4Zm-100,70a70,70,0,1,1,70-70h0A70,70,0,0,1,1780,270Z"/><path class="cls-3" d="M1530,220h140V200a100,100,0,0,0-200,0h0a100,100,0,0,0,170.71,70.71L1619.5,249.5A70,70,0,0,1,1500,200h0a70,70,0,0,1,140,0H1530Z"/><path class="cls-3" d="M1950,220h140V200a100,100,0,0,0-200,0h0a100,100,0,0,0,170.71,70.71L2039.5,249.5A70,70,0,0,1,1920,200h0a70,70,0,0,1,140,0H1950Z"/><path class="cls-3" d="M1300,100a100,100,0,0,0-100,100V300h30V200h0a70,70,0,0,1,140,0h30A100,100,0,0,0,1300,100Z"/></svg>
